X: 52
T: Walker Street (Carpenter's Reel)
O: Ryan 1883
B: Ryan’s "Mammoth Collection", 1883; p.72
B: Kohler’s "Violin Repository", 1881-5
B: White’s Unique Collection, 1896; No. 41, p.8
B: Cole p.45
Z: John Chambers <jc:trillian.mit.edu>
M: C|
L: 1/8
K: G
|: "G"~G2 BG [dD]GBG | "D7"ABcd cBAG | "G"BdgB dgBd | "C"cBAG "D7"FDEF |  "G"~G2 BG [dD]GBG |
"D7"ABcd cBAG | "G"BdgB dgBd | "D7"cAFD "G"G4 :: "G"g2dg Bgdg | gabg "D7"agef | "G"g2dg Bgdg |
"C"cBAG "D7"Fdef |  "G"g2dg Bgdg | gabg "D7"agef | "C"gfga "(G)"gfed | "C"eg"D7"fa "G"g4 :|

%%sep 2 1 500

